X: 45
T:Grandfather's Clock
M:4/4
L:1/8
Q:200
R:reel
K:A
E2F2G2|:"A"A3  A G2 A2|"E" B3 B A2B2|"A"c3 fe2 c2 |"D"A6 {=F}F2 |!
"A"E6 zA |"E"e3czec2 |"A" [A6A6] {=F}F2 |"E" E2 E2 F2 G2:|!
"A"e2e2c2e2|B2A2G2A2|"D"B2A2G2F2|"A"E2c2B2A2|!
"A"e2e2{=c}c2e2|"B7"B2A2G2A2|"E"[G2B2][G2B2][GB][G2B2][FB]|[E3B3]E F2G2|
!
"A"A3 A G2 A2|"E"{A}B3 B A2B2|"A"{=c}c2 fz e2 c2|"D"a3 fe2c2|!
"A"A3AG2A2|"E"{=c}c2B2A2G2|"A"A2 AA G2F2|E2B,C DEFG|!
|:"Bridge"[A4e4] [E2A2][E2A2]|[F2A2][F2A2][E4A4]|[A2a2]c'2b2a2|{=f}[f4a4
][e4a4]:|

